X: 672
T: Rugged and Tuff
%R: reel
B: "The Compleat Country Dancing-Master" printed by John Walsh, London ca. 1740
S: 6: CCDM2 http://imslp.org/wiki/The_Compleat_Country_Dancing-Master_(Various) V.2 (82)
Z: 2013 John Chambers <jc:trillian.mit.edu>
N: No repeat instructions, but it looks like each strain should be played twice.
M: C|
L: 1/8
K: G
% - - - - - - - - - - - - - - - - - - - - - - - - -
[|\
GABc d2g2 | GABc d2g2 | f2g2 a2b2 | agfe d2B2 |\
GABc d2g2 | GABc d2g2 | f2g2 a2b2 | d6 |]
[| d2 |\
gfga gfed | e6 d2 | edcB cBAG | F6 d2 |\
e2A2 d2G2 | F2G2 ABcd | edcB A3G | G6 |]
% - - - - - - - - - - - - - - - - - - - - - - - - -
%%begintext align
%% First Cu. fall back four steps down the middle in 2d Cu.
%% Place Improper, then cross over below 3d Cu. .| Then
%% fall round each other as before. up the Middle above
%% 3d Cu. and cross up to the top :| 1t Cu. go the Hey.
%% sides with 2d and 3d Cu. .| 1st Man change Place with
%% 2d Wo. 1st and 2d Man do the same Then take Hands and
%% go half round, the 1st Cu. cast off :|
%%endtext
%%sep 1 8 500

%%sep 1 1 500
%%sep 1 1 500
